X: 49
T:Kings Bridge Assembly,The,1st part. JN.07
T:Sailors Are All At The Bar,aka. JN.07
M:6/8
L:1/8
Q:120
C:Sailors Are All At The Bar,aka
S:James Nuttall MS,c1830,Rossendale,East Lancs.
R:Jig
O:England
A:East Lancashire
Z:vmp.Manchester Morris Men
K:D
"primo"f2e f2e|dcd A2A|BGB AFA|GEG F2F|!
f2e f2e|dcd A2A|BAG FGE|D2D D3:|!
|:DFA AFD|G2B B2B|Gef ecA|d2f f2f|!
afd Bdf|ged cBe|BAG FGE|D2D D3:|]
